public/avatar/shoe/151.svg

<svg xmlns:xlink="http://www.w3.org/1999/xlink" height="38.3" width="36.05" xmlns="http://www.w3.org/2000/svg"><use height="19.55" transform="translate(13.8 10.3)" width="19.95" xlink:href="#a"/><defs><g id="a"><path d="M6.2-1.25q-.8-1.3-4.35-1.8-3-.45-4.55 1.05l-.1.15L-3.85.2l-.75 1.45Q-7.65 4.5-9.7 8.6q-.6 2.3.1 4.05 1.25 1.8 6.15 2.25 4.6.35 6.6-.75Q5.4 13 6.95 8.75q1.25-3.3 1.15-4.6 0-1.9-1.9-5.4" fill-rule="evenodd" transform="translate(10 4.55)"/><path d="M5.2-.65q-.5-.9-3.1-1.25-2.75-.4-4 .75l-1.95 3.6q-3 2.8-4.8 6.5-.5 2.05.05 3.2 1.05 1.5 5.3 1.8 4.1.25 5.9-.8Q4.7 12.1 6.05 8.4q1.05-2.9.9-4.2 0-1.95-1.75-4.85" fill="#323333" fill-rule="evenodd" transform="translate(10 4.55)"/><path d="M.95 15.05q.85 1.4 5.7 1.75 4.8.4 6.05-.6.95-.55 2.7-4.55 1.55-3.75 1.55-4.7" fill="none" stroke="#000" stroke-linecap="round" stroke-linejoin="round" stroke-width=".9"/><path d="m3.1 6.45.3-2.2q-.05-1.4-.5-1.65-2.6-1.35-5.6-.7l-.35.1q-2.65 2.7-2.3 4.45.2.75 1.15 1.05l3.9.35q2.95-.2 3.4-1.4" fill-rule="evenodd" transform="translate(10 4.55)"/><path d="m.6 2.9-3-.05q-3.25 3.25-1.2 3.8l3.2.25q2.2-.15 2.45-.9.3-.65.25-1.65l-.25-1L.6 2.9" fill="#fff" fill-rule="evenodd" transform="translate(10 4.55)"/><path d="M.65 6.75q.95-.1 1.25-.55l.2-.5.2-.8v-.8l-.1-.85L1.4 3H-.9l-1.65.25-.5.2-.35.5.8-.2 1.45-.15 1.1.15.15.6Q-.05 5.6-.85 6l-2.2.2q-1.05 0-1.15-.5v.4l.15.35.7.25.95.2 1.25.05.85-.05.95-.15" fill="#ccecf4" fill-rule="evenodd" transform="translate(10 4.55)"/><path d="m6.95 5.25.45.15.45-.05.05-.1q-.3-1-2.35-3.05-3.15-1.55-7-1.1-3.95.4-6.4 2.75l.55.4.5.1q7.4-1.95 13.75.9" fill="#919da1" fill-rule="evenodd" transform="translate(10 4.55)"/><path d="M8.15-1 8.1-2.65 7.8-3Q2.15-5.4-2.55-4.05q-3.1.9-4.35 2.65l-.25.5.25.5.75.9q-1.25.6-1.95 1.1l-.5.8v.1l.75 1.35Q-5.4 1.5-1.45 1.1q3.85-.45 7 1.1Q7.6 4.25 7.9 5.25 9.6 4.1 9.95 1.9v-.15q0-.3-.35-.4l-.25-.15L8.4.9Q8.15.15 8.15-1" fill="#454b4c" fill-rule="evenodd" transform="translate(10 4.55)"/><path d="M6.95-2.15Q-1.45-5.65-5.9-.9q.35.15.75 1.1.35.9.05.95-2.2.6-2.3 1.3 0 .5.7.95L3.35 3 7.4 4.35q1.15-.75 1.4-1.6V2.1l-1.45-.6-.4-3.65" fill="#fff" fill-rule="evenodd" transform="translate(10 4.55)"/><path d="m2.05-3.75-3.35.4q-2.05.45-3.5 1.25-1.05.6-1.15 1.1l.05-.1-.05.2 1.9-.5 2.5-.2 4.2-.2 1.55.65q.25.85-.5 2L1.05.45l-3.1.4 5.95.5q1.4.4 1.8 1.4-1.4-.55-3.4-.65l-3.9-.2-3.45.6q-.65.2-1.9.75l.1.2Q-3.8 2.4.8 2.75q4.25.35 6.6 1.6.7-.25 1.2-1.2l.25-1.05-1.5-.65-.4-3.6q-.4-1.6-4.9-1.6" fill="#dcdee0" fill-rule="evenodd" transform="translate(10 4.55)"/><path d="M3.95 6.7H3.9l-.45.75-.8 1.15-.7 1-1 .15.35.6-2.2.3-2.8.2 3.25.25 2.05-.25q.3-.15.1-.85l.65.1.3-.65 1.3-2.75" fill="#fff" fill-rule="evenodd" transform="translate(10 4.55)"/></g></defs></svg>

<?xml version="1.0" encoding="UTF-8" standalone="no"?>
<svg xmlns:xlink="http://www.w3.org/1999/xlink" height="38.3px" width="36.05px" xmlns="http://www.w3.org/2000/svg">
  <g transform="matrix(1.0, 0.0, 0.0, 1.0, 23.8, 14.85)">
    <use height="19.55" transform="matrix(1.0, 0.0, 0.0, 1.0, -10.0, -4.55)" width="19.95" xlink:href="#shape0"/>
  </g>
  <defs>
    <g id="shape0" transform="matrix(1.0, 0.0, 0.0, 1.0, 10.0, 4.55)">
      <path d="M6.2 -1.25 Q5.4 -2.55 1.85 -3.05 -1.15 -3.5 -2.7 -2.0 L-2.8 -1.85 -3.85 0.2 -4.6 1.65 Q-7.65 4.5 -9.7 8.6 -10.3 10.9 -9.6 12.65 -8.35 14.45 -3.45 14.9 1.15 15.25 3.15 14.15 5.4 13.0 6.95 8.75 8.2 5.45 8.1 4.15 8.1 2.25 6.2 -1.25" fill="#000000" fill-rule="evenodd" stroke="none"/>
      <path d="M5.2 -0.65 Q4.7 -1.55 2.1 -1.9 -0.65 -2.3 -1.9 -1.15 L-3.85 2.45 Q-6.85 5.25 -8.65 8.95 -9.15 11.0 -8.6 12.15 -7.55 13.65 -3.3 13.95 0.8 14.2 2.6 13.15 4.7 12.1 6.05 8.4 7.1 5.5 6.95 4.2 6.95 2.25 5.2 -0.65" fill="#323333" fill-rule="evenodd" stroke="none"/>
      <path d="M-9.05 10.5 Q-8.2 11.9 -3.35 12.25 1.45 12.65 2.7 11.65 3.65 11.1 5.4 7.1 6.95 3.35 6.95 2.4" fill="none" stroke="#000000" stroke-linecap="round" stroke-linejoin="round" stroke-width="0.9"/>
      <path d="M3.1 6.45 L3.4 4.25 Q3.35 2.85 2.9 2.6 0.3 1.25 -2.7 1.9 L-3.05 2.0 Q-5.7 4.7 -5.35 6.45 -5.15 7.2 -4.2 7.5 L-0.3 7.85 Q2.65 7.65 3.1 6.45" fill="#000000" fill-rule="evenodd" stroke="none"/>
      <path d="M0.6 2.9 L-2.4 2.85 Q-5.65 6.1 -3.6 6.65 L-0.4 6.9 Q1.8 6.75 2.05 6.0 2.35 5.35 2.3 4.35 L2.05 3.35 0.6 2.9" fill="#ffffff" fill-rule="evenodd" stroke="none"/>
      <path d="M0.65 6.75 Q1.6 6.65 1.9 6.2 L2.1 5.7 2.3 4.9 2.3 4.1 2.2 3.25 1.4 3.0 -0.9 3.0 -2.55 3.25 -3.05 3.45 -3.4 3.95 -2.6 3.75 -1.15 3.6 -0.05 3.75 0.1 4.35 Q-0.05 5.6 -0.85 6.0 L-3.05 6.2 Q-4.1 6.2 -4.2 5.7 L-4.2 6.1 -4.05 6.45 -3.35 6.7 -2.4 6.9 -1.15 6.95 -0.3 6.9 0.65 6.75" fill="#ccecf4" fill-rule="evenodd" stroke="none"/>
      <path d="M6.95 5.25 L7.4 5.4 7.85 5.35 7.9 5.25 Q7.6 4.25 5.55 2.2 2.4 0.65 -1.45 1.1 -5.4 1.5 -7.85 3.85 L-7.3 4.25 -6.8 4.35 Q0.6 2.4 6.95 5.25" fill="#919da1" fill-rule="evenodd" stroke="none"/>
      <path d="M8.15 -1.0 L8.1 -2.65 7.8 -3.0 Q2.15 -5.4 -2.55 -4.05 -5.65 -3.15 -6.9 -1.4 L-7.15 -0.9 -6.9 -0.4 -6.15 0.5 Q-7.4 1.1 -8.1 1.6 L-8.6 2.4 -8.6 2.5 -7.85 3.85 Q-5.4 1.5 -1.45 1.1 2.4 0.65 5.55 2.2 7.6 4.25 7.9 5.25 9.6 4.1 9.95 1.9 L9.95 1.75 Q9.95 1.45 9.6 1.35 L9.35 1.2 8.4 0.9 Q8.15 0.15 8.15 -1.0" fill="#454b4c" fill-rule="evenodd" stroke="none"/>
      <path d="M6.95 -2.15 Q-1.45 -5.65 -5.9 -0.9 -5.55 -0.75 -5.15 0.2 -4.8 1.1 -5.1 1.15 -7.3 1.75 -7.4 2.45 -7.4 2.95 -6.7 3.4 L3.35 3.0 7.4 4.35 Q8.55 3.6 8.8 2.75 L8.8 2.1 7.35 1.5 6.95 -2.15" fill="#ffffff" fill-rule="evenodd" stroke="none"/>
      <path d="M2.05 -3.75 L-1.3 -3.35 Q-3.35 -2.9 -4.8 -2.1 -5.85 -1.5 -5.95 -1.0 L-5.9 -1.1 -5.95 -0.9 -4.05 -1.4 -1.55 -1.6 2.65 -1.8 4.2 -1.15 Q4.45 -0.3 3.7 0.85 L1.05 0.45 -2.05 0.85 3.9 1.35 Q5.3 1.75 5.7 2.75 4.3 2.2 2.3 2.1 L-1.6 1.9 -5.05 2.5 Q-5.7 2.7 -6.95 3.25 L-6.85 3.45 Q-3.8 2.4 0.8 2.75 5.05 3.1 7.4 4.35 8.1 4.1 8.6 3.15 L8.85 2.1 7.35 1.45 6.95 -2.15 Q6.55 -3.75 2.05 -3.75" fill="#dcdee0" fill-rule="evenodd" stroke="none"/>
      <path d="M3.95 6.7 L3.9 6.7 3.45 7.45 2.65 8.6 1.95 9.6 0.95 9.75 1.3 10.35 -0.9 10.65 -3.7 10.85 -0.45 11.1 1.6 10.85 Q1.9 10.7 1.7 10.0 L2.35 10.1 2.65 9.45 3.95 6.7" fill="#ffffff" fill-rule="evenodd" stroke="none"/>
    </g>
  </defs>
</svg>
